X:25
T:Polca Piqu
C:trad. Gistan y S. Juan de Plan
A:Pirineo Central Espaol
B:idem.
O:Sobrarbe, Huesca
Z:Luis Miguel Escalona
M:2/4
L:1/8
K:G
B2|d2 B/c/B/A/|BG B2|d2 B/c/B/A/G2:|
DB|BB BA/B/|cA DA|AA AG/A/|BG 
DB|BB BA/B/|cA Ae|dc BA|G2:|
